icons/argocd-dark.svg

<svg width="256" height="256" viewBox="0 0 256 256" fill="none" xmlns="http://www.w3.org/2000/svg">
<path d="M196 0H60C26.8629 0 0 26.8629 0 60V196C0 229.137 26.8629 256 60 256H196C229.137 256 256 229.137 256 196V60C256 26.8629 229.137 0 196 0Z" fill="#282828"/>
<g clip-path="url(#clip0_420_52)">
<path d="M93.4054 173.49C93.4054 173.49 91.9165 177.972 89.67 180.211C89.0147 180.943 88.2078 181.522 87.3055 181.91C86.4033 182.298 85.4274 182.484 84.4458 182.456C80.7602 183.446 77.0139 184.194 73.231 184.696C73.231 184.696 78.464 185.444 84.4458 186.191C86.6835 186.191 86.6835 186.191 88.1794 186.94C91.9165 186.94 93.4054 184.696 93.4054 184.696V173.49ZM162.153 173.49C162.153 173.49 163.649 177.972 165.889 180.211C166.546 180.942 167.354 181.522 168.257 181.909C169.161 182.297 170.137 182.483 171.12 182.456C174.803 183.446 178.546 184.194 182.326 184.696C182.326 184.696 177.1 185.444 170.373 186.191C168.134 186.191 168.134 186.191 166.636 186.94C162.153 186.94 161.405 184.696 161.405 184.696L162.153 173.49Z" fill="#E9654B"/>
<path d="M209.229 99.5101C209.229 144.079 173.098 180.211 128.528 180.211C83.9572 180.211 47.8271 144.079 47.8271 99.5101C47.8271 54.946 83.9572 18.8159 128.528 18.8159C173.098 18.8159 209.229 54.946 209.229 99.5101Z" fill="#B6CFEA"/>
<path d="M206.243 99.5102C206.243 142.432 171.45 177.223 128.528 177.223C85.6127 177.223 50.8203 142.432 50.8203 99.5102C50.8203 56.5949 85.6127 21.8008 128.528 21.8008C171.45 21.8008 206.241 56.5932 206.241 99.5084L206.243 99.5102Z" fill="#E6F5F8"/>
<path d="M192.042 101.008C192.042 136.087 163.609 164.521 128.528 164.521C93.4528 164.521 65.0132 136.087 65.0132 101.006C65.0132 65.9323 93.4546 37.4927 128.528 37.4927C163.609 37.4927 192.042 65.9358 192.042 101.008Z" fill="#D0E8F0"/>
<path d="M91.1674 130.896C91.1674 130.896 96.3986 215.333 96.3986 216.83C96.3986 217.572 97.1475 219.068 93.4051 220.566C89.6697 222.056 77.7148 225.048 77.7148 225.048H95.6498C103.869 225.048 103.869 218.321 103.869 216.83C103.869 215.333 106.109 183.205 106.109 183.205C106.109 183.205 106.856 221.314 106.856 222.803C106.856 224.301 106.109 226.539 100.883 228.036C97.1475 228.785 85.9344 231.025 85.9344 231.025H103.122C113.587 231.025 113.587 224.301 113.587 224.301L115.824 190.676C115.824 190.676 116.573 224.301 116.573 228.036C116.573 231.025 114.334 233.269 106.109 234.758C100.883 236.256 94.1539 237.752 94.1539 237.752H113.587C123.295 237.005 124.793 230.274 124.793 230.274L141.23 146.586L91.1674 130.896Z" fill="#EE794B"/>
<path d="M165.889 130.896C165.889 130.896 160.663 215.332 160.663 216.83C160.663 217.572 159.914 219.068 163.651 220.565C167.384 222.056 179.339 225.048 179.339 225.048H161.404C153.185 225.048 153.185 218.321 153.185 216.83C153.185 215.332 150.947 183.205 150.947 183.205C150.947 183.205 150.198 221.314 150.198 222.803C150.198 224.301 150.947 226.538 156.178 228.036L171.12 231.024H153.935C143.476 231.024 143.476 224.301 143.476 224.301L141.232 190.676C141.232 190.676 140.483 224.301 140.483 228.036C140.483 231.024 142.729 233.269 150.949 234.758C156.18 236.256 162.902 237.752 162.902 237.752H143.476C133.759 237.004 132.262 230.274 132.262 230.274L115.826 146.588L165.889 130.896ZM166.636 89.8C166.636 110.723 149.45 127.161 129.275 127.161C109.102 127.161 91.9146 109.974 91.9146 89.8C91.9146 69.6273 109.102 52.4395 129.275 52.4395C149.45 52.4395 166.636 68.8785 166.636 89.8Z" fill="#EE794B"/>
<mask id="mask0_420_52" style="mask-type:luminance" maskUnits="userSpaceOnUse" x="89" y="88" width="79" height="90">
<path d="M89.8281 88.0703H167.172V177.719H89.8281V88.0703Z" fill="white"/>
</mask>
<g mask="url(#mask0_420_52)">
<mask id="mask1_420_52" style="mask-type:luminance" maskUnits="userSpaceOnUse" x="91" y="88" width="76" height="103">
<path d="M166.636 88.3042L162.153 190.676H94.9028L91.1675 88.3042" fill="white"/>
</mask>
<g mask="url(#mask1_420_52)">
<path d="M195.777 109.973C195.777 146.702 166.004 176.476 129.275 176.476C92.5473 176.476 62.7734 146.702 62.7734 109.974C62.7734 73.245 92.5473 43.4729 129.275 43.4729C166.004 43.4729 195.777 73.2432 195.777 109.973Z" fill="#EE794B"/>
</g>
</g>
<mask id="mask2_420_52" style="mask-type:luminance" maskUnits="userSpaceOnUse" x="16" y="16" width="225" height="225">
<path d="M16 16H241V241H16V16Z" fill="black" fill-opacity="0.22"/>
</mask>
<g mask="url(#mask2_420_52)">
<mask id="mask3_420_52" style="mask-type:luminance" maskUnits="userSpaceOnUse" x="16" y="16" width="225" height="225">
<path d="M16 16H241V241H16V16Z" fill="white"/>
</mask>
<g mask="url(#mask3_420_52)">
<path d="M164.398 130.896C164.398 130.896 168.881 91.2907 162.901 76.3493C151.695 50.1948 125.54 52.4395 125.54 52.4395C125.54 52.4395 140.481 58.4143 141.23 80.8335C141.979 96.5237 141.23 119.69 141.23 119.69L164.398 130.896Z" fill="#E34E3B"/>
</g>
</g>
<mask id="mask4_420_52" style="mask-type:luminance" maskUnits="userSpaceOnUse" x="16" y="16" width="225" height="225">
<path d="M16 16H241V241H16V16Z" fill="black" fill-opacity="0.502"/>
</mask>
<g mask="url(#mask4_420_52)">
<mask id="mask5_420_52" style="mask-type:luminance" maskUnits="userSpaceOnUse" x="16" y="16" width="225" height="225">
<path d="M16 16H241V241H16V16Z" fill="white"/>
</mask>
<g mask="url(#mask5_420_52)">
<path d="M118.811 69.6273C118.811 70.3139 118.675 70.9936 118.412 71.6277C118.149 72.2618 117.764 72.8379 117.278 73.3231C116.792 73.8083 116.216 74.1931 115.581 74.4555C114.947 74.7179 114.267 74.8528 113.581 74.8524C112.894 74.8521 112.214 74.7165 111.58 74.4535C110.946 74.1905 110.37 73.8051 109.885 73.3194C109.4 72.8337 109.015 72.2572 108.752 71.6228C108.49 70.9885 108.355 70.3086 108.355 69.6221C108.356 68.2356 108.908 66.9062 109.888 65.9263C110.869 64.9464 112.199 64.3963 113.586 64.397C114.972 64.3977 116.302 64.9491 117.282 65.93C118.262 66.9109 118.812 68.2409 118.811 69.6273Z" fill="#FBDFC3"/>
</g>
</g>
<path d="M141.979 145.837C141.979 158.541 135.999 166.768 128.528 166.768C121.058 166.768 115.076 157.05 115.076 144.348C115.076 144.348 121.058 156.302 129.275 156.302C137.495 156.302 141.979 145.837 141.979 145.837Z" fill="#010101"/>
<path d="M141.979 145.837C141.979 154.064 135.999 158.541 128.528 158.541C121.057 158.541 115.824 152.566 115.824 145.095C115.824 145.095 121.804 152.566 130.024 152.566C138.243 152.566 141.979 145.837 141.979 145.837Z" fill="white"/>
<path d="M177.842 110.723C177.842 123.515 167.474 133.882 154.683 133.882C141.889 133.882 131.515 123.515 131.515 110.723C131.515 97.9298 141.889 87.5552 154.683 87.5552C167.474 87.5552 177.842 97.9298 177.842 110.723ZM125.54 110.723C125.54 123.515 115.165 133.882 102.372 133.882C89.5805 133.882 79.2129 123.515 79.2129 110.723C79.2129 97.9298 89.5805 87.5552 102.374 87.5552C115.165 87.5552 125.54 97.9298 125.54 110.723Z" fill="#E9654B"/>
<path d="M172.618 110.723C172.618 120.625 164.585 128.658 154.683 128.658C144.781 128.658 136.746 120.625 136.746 110.723C136.746 100.815 144.779 92.7883 154.683 92.7883C164.583 92.7883 172.618 100.815 172.618 110.723ZM118.811 110.723C118.811 120.625 110.785 128.658 100.883 128.658C90.9744 128.658 82.9482 120.625 82.9482 110.723C82.9478 108.368 83.4114 106.036 84.3125 103.859C85.2137 101.683 86.5347 99.7058 88.2002 98.0403C89.8657 96.3748 91.8431 95.0538 94.0192 94.1526C96.1954 93.2515 98.5278 92.7879 100.883 92.7883C110.785 92.7883 118.811 100.815 118.811 110.723Z" fill="white"/>
<path d="M106.109 108.478C106.109 109.165 105.974 109.845 105.712 110.48C105.449 111.115 105.064 111.691 104.579 112.177C104.094 112.663 103.517 113.048 102.883 113.312C102.249 113.575 101.569 113.71 100.882 113.711C100.195 113.711 99.5152 113.576 98.8806 113.314C98.246 113.051 97.6693 112.666 97.1834 112.181C96.6976 111.695 96.3121 111.119 96.049 110.485C95.7859 109.85 95.6502 109.17 95.6499 108.484C95.649 107.097 96.199 105.766 97.1791 104.785C98.1592 103.804 99.4889 103.252 100.876 103.251C102.263 103.25 103.593 103.8 104.575 104.78C105.556 105.76 106.108 107.092 106.109 108.478ZM159.914 108.478C159.927 109.173 159.801 109.864 159.544 110.51C159.287 111.155 158.904 111.744 158.417 112.24C157.93 112.736 157.349 113.13 156.708 113.399C156.067 113.668 155.379 113.806 154.684 113.806C153.989 113.807 153.301 113.668 152.66 113.399C152.019 113.131 151.438 112.737 150.951 112.241C150.464 111.745 150.081 111.157 149.824 110.511C149.566 109.866 149.44 109.175 149.453 108.48C149.478 107.11 150.039 105.803 151.017 104.843C151.995 103.882 153.311 103.344 154.682 103.343C156.052 103.343 157.369 103.88 158.347 104.84C159.326 105.8 159.888 107.108 159.914 108.478Z" fill="#010101"/>
<path d="M46.3365 119.69C45.8379 119.721 45.3385 119.645 44.8713 119.468C44.4041 119.292 43.9799 119.018 43.6267 118.664C43.2735 118.311 42.9994 117.887 42.8226 117.42C42.6458 116.953 42.5703 116.453 42.6011 115.955V86.0665C42.5699 85.5677 42.645 85.068 42.8214 84.6004C42.9977 84.1329 43.2714 83.7081 43.6242 83.3542C43.9781 83.0013 44.4029 82.7277 44.8705 82.5513C45.338 82.375 45.8377 82.2999 46.3365 82.3311C46.835 82.3003 47.3345 82.3757 47.8016 82.5525C48.2688 82.7293 48.6931 83.0034 49.0463 83.3567C49.3995 83.7099 49.6736 84.1341 49.8504 84.6013C50.0272 85.0685 50.1027 85.5679 50.0718 86.0665V115.956C50.1333 116.958 49.7554 117.948 49.0417 118.663C48.6889 119.016 48.2652 119.291 47.7985 119.468C47.3319 119.645 46.833 119.721 46.3347 119.692L46.3365 119.69ZM209.229 119.69C208.731 119.72 208.232 119.644 207.765 119.466C207.298 119.289 206.875 119.014 206.522 118.66C206.17 118.307 205.896 117.884 205.718 117.417C205.541 116.951 205.465 116.453 205.494 115.955V86.0665C205.464 85.5672 205.54 85.0673 205.718 84.5998C205.896 84.1322 206.17 83.7077 206.524 83.3542C206.877 83.0015 207.3 82.7279 207.767 82.5515C208.233 82.3752 208.732 82.3 209.229 82.3311C209.727 82.3 210.226 82.3752 210.692 82.5515C211.159 82.7279 211.582 83.0015 211.935 83.3542C212.655 84.0696 213.025 85.0592 212.965 86.0665V115.956C212.996 116.455 212.92 116.954 212.742 117.421C212.565 117.888 212.289 118.312 211.935 118.663C211.582 119.017 211.159 119.291 210.692 119.469C210.225 119.646 209.726 119.722 209.228 119.692L209.229 119.69Z" fill="#B6CFEA"/>
<path d="M106.858 39.7375C106.858 40.7282 106.464 41.6783 105.764 42.3788C105.063 43.0794 104.113 43.4729 103.122 43.4729C102.132 43.4729 101.181 43.0794 100.481 42.3788C99.7805 41.6783 99.3869 40.7282 99.3869 39.7375C99.3869 38.7469 99.7805 37.7968 100.481 37.0963C101.181 36.3957 102.132 36.0022 103.122 36.0022C104.113 36.0022 105.063 36.3957 105.764 37.0963C106.464 37.7968 106.858 38.7469 106.858 39.7375ZM76.226 140.611C75.8195 140.663 75.4067 140.622 75.0179 140.493C74.6291 140.364 74.2743 140.149 73.9795 139.864C65.0129 128.658 60.5287 114.459 60.5287 100.259C60.4887 88.4538 63.5835 76.8495 69.4971 66.6321C75.4916 56.9068 83.6793 48.7196 93.4051 42.7258C94.0294 42.4459 94.7255 42.3673 95.3965 42.5012C96.0675 42.6351 96.6801 42.9748 97.1492 43.4729C97.4265 44.0966 97.5032 44.791 97.3687 45.4601C97.2343 46.1292 96.8953 46.7401 96.3986 47.2083C87.1291 52.4454 79.4115 60.0433 74.03 69.2297C68.6486 78.4162 65.7952 88.8636 65.76 99.5102C65.7392 112.801 70.2166 125.707 78.4637 136.129C79.2125 136.878 79.2125 139.117 77.7148 139.864C76.9678 140.613 76.9678 140.611 76.226 140.611Z" fill="white"/>
<mask id="mask6_420_52" style="mask-type:luminance" maskUnits="userSpaceOnUse" x="16" y="16" width="225" height="225">
<path d="M16 16H241V241H16V16Z" fill="black" fill-opacity="0.251"/>
</mask>
<g mask="url(#mask6_420_52)">
<mask id="mask7_420_52" style="mask-type:luminance" maskUnits="userSpaceOnUse" x="16" y="16" width="225" height="225">
<path d="M16 16H241V241H16V16Z" fill="white"/>
</mask>
<g mask="url(#mask7_420_52)">
<path d="M162.153 175.727V169.756C151.694 175.729 140.481 181.709 127.038 181.709C112.089 181.709 102.374 174.987 92.6636 169.756L93.4054 175.729C93.4054 175.729 104.62 187.691 127.779 187.691C149.45 186.942 162.153 175.727 162.153 175.727Z" fill="#E9654B"/>
</g>
</g>
</g>
<defs>
<clipPath id="clip0_420_52">
<rect width="225" height="225" fill="white" transform="translate(16 16)"/>
</clipPath>
</defs>
</svg>

<svg xmlns="http://www.w3.org/2000/svg" width="256" height="256" fill="none"><path fill="#282828" d="M196 0H60C26.863 0 0 26.863 0 60v136c0 33.137 26.863 60 60 60h136c33.137 0 60-26.863 60-60V60c0-33.137-26.863-60-60-60"/><g clip-path="url(#clip0_420_52)"><path fill="#E9654B" d="M93.405 173.49s-1.489 4.482-3.735 6.721a6.75 6.75 0 0 1-5.224 2.245 88 88 0 0 1-11.215 2.24s5.233.748 11.215 1.495c2.237 0 2.237 0 3.733.749 3.737 0 5.226-2.244 5.226-2.244zm68.748 0s1.496 4.482 3.736 6.721a6.77 6.77 0 0 0 5.231 2.245 88 88 0 0 0 11.206 2.24s-5.226.748-11.953 1.495c-2.239 0-2.239 0-3.737.749-4.483 0-5.231-2.244-5.231-2.244z"/><path fill="#B6CFEA" d="M209.229 99.51c0 44.569-36.131 80.701-80.701 80.701s-80.7-36.132-80.7-80.7c0-44.565 36.13-80.695 80.7-80.695s80.701 36.13 80.701 80.694"/><path fill="#E6F5F8" d="M206.243 99.51c0 42.922-34.793 77.713-77.715 77.713-42.915 0-77.708-34.791-77.708-77.713 0-42.915 34.793-77.71 77.708-77.71 42.922 0 77.713 34.793 77.713 77.708z"/><path fill="#D0E8F0" d="M192.042 101.008c0 35.079-28.433 63.513-63.514 63.513-35.075 0-63.515-28.434-63.515-63.515 0-35.074 28.442-63.513 63.515-63.513 35.081 0 63.514 28.443 63.514 63.515"/><path fill="#EE794B" d="M91.167 130.896S96.4 215.333 96.4 216.83c0 .742.748 2.238-2.994 3.736-3.735 1.49-15.69 4.482-15.69 4.482H95.65c8.219 0 8.219-6.727 8.219-8.218 0-1.497 2.24-33.625 2.24-33.625s.747 38.109.747 39.598c0 1.498-.747 3.736-5.973 5.233-3.736.749-14.949 2.989-14.949 2.989h17.188c10.465 0 10.465-6.724 10.465-6.724l2.237-33.625s.749 33.625.749 37.36c0 2.989-2.239 5.233-10.464 6.722-5.226 1.498-11.955 2.994-11.955 2.994h19.433c9.708-.747 11.206-7.478 11.206-7.478l16.437-83.688z"/><path fill="#EE794B" d="M165.889 130.896s-5.226 84.436-5.226 85.934c0 .742-.749 2.238 2.988 3.735 3.733 1.491 15.688 4.483 15.688 4.483h-17.935c-8.219 0-8.219-6.727-8.219-8.218 0-1.498-2.238-33.625-2.238-33.625s-.749 38.109-.749 39.598c0 1.498.749 3.735 5.98 5.233l14.942 2.988h-17.185c-10.459 0-10.459-6.723-10.459-6.723l-2.244-33.625s-.749 33.625-.749 37.36c0 2.988 2.246 5.233 10.466 6.722 5.231 1.498 11.953 2.994 11.953 2.994h-19.426c-9.717-.748-11.214-7.478-11.214-7.478l-16.436-83.686zm.747-41.096c0 20.923-17.186 37.361-37.361 37.361-20.173 0-37.36-17.187-37.36-37.361s17.187-37.36 37.36-37.36c20.175 0 37.361 16.439 37.361 37.36"/><mask id="mask0_420_52" width="79" height="90" x="89" y="88" maskUnits="userSpaceOnUse" style="mask-type:luminance"><path fill="#fff" d="M89.828 88.07h77.344v89.649H89.828z"/></mask><g mask="url(#mask0_420_52)"><mask id="mask1_420_52" width="76" height="103" x="91" y="88" maskUnits="userSpaceOnUse" style="mask-type:luminance"><path fill="#fff" d="m166.636 88.304-4.483 102.372h-67.25L91.167 88.304"/></mask><g mask="url(#mask1_420_52)"><path fill="#EE794B" d="M195.777 109.973c0 36.729-29.773 66.503-66.502 66.503s-66.502-29.774-66.502-66.502c0-36.729 29.774-66.501 66.502-66.501 36.729 0 66.502 29.77 66.502 66.5"/></g></g><mask id="mask2_420_52" width="225" height="225" x="16" y="16" maskUnits="userSpaceOnUse" style="mask-type:luminance"><path fill="#000" fill-opacity=".22" d="M16 16h225v225H16z"/></mask><g mask="url(#mask2_420_52)"><mask id="mask3_420_52" width="225" height="225" x="16" y="16" maskUnits="userSpaceOnUse" style="mask-type:luminance"><path fill="#fff" d="M16 16h225v225H16z"/></mask><g mask="url(#mask3_420_52)"><path fill="#E34E3B" d="M164.398 130.896s4.483-39.605-1.497-54.547c-11.206-26.154-37.361-23.91-37.361-23.91s14.941 5.975 15.69 28.395c.749 15.69 0 38.856 0 38.856z"/></g></g><mask id="mask4_420_52" width="225" height="225" x="16" y="16" maskUnits="userSpaceOnUse" style="mask-type:luminance"><path fill="#000" fill-opacity=".502" d="M16 16h225v225H16z"/></mask><g mask="url(#mask4_420_52)"><mask id="mask5_420_52" width="225" height="225" x="16" y="16" maskUnits="userSpaceOnUse" style="mask-type:luminance"><path fill="#fff" d="M16 16h225v225H16z"/></mask><g mask="url(#mask5_420_52)"><path fill="#FBDFC3" d="M118.811 69.627a5.22 5.22 0 0 1-1.533 3.696 5.226 5.226 0 0 1-8.526-1.7 5.23 5.23 0 0 1 1.136-5.696 5.229 5.229 0 0 1 8.923 3.7"/></g></g><path fill="#010101" d="M141.979 145.837c0 12.704-5.98 20.931-13.451 20.931-7.47 0-13.452-9.718-13.452-22.42 0 0 5.982 11.954 14.199 11.954 8.22 0 12.704-10.465 12.704-10.465"/><path fill="#fff" d="M141.979 145.837c0 8.227-5.98 12.704-13.451 12.704s-12.704-5.975-12.704-13.446c0 0 5.98 7.471 14.2 7.471s11.955-6.729 11.955-6.729"/><path fill="#E9654B" d="M177.842 110.723c0 12.792-10.368 23.159-23.159 23.159-12.794 0-23.168-10.367-23.168-23.159 0-12.793 10.374-23.168 23.168-23.168 12.791 0 23.159 10.375 23.159 23.168m-52.302 0c0 12.792-10.375 23.159-23.168 23.159-12.791 0-23.16-10.367-23.16-23.159 0-12.793 10.368-23.168 23.162-23.168 12.791 0 23.166 10.375 23.166 23.168"/><path fill="#fff" d="M172.618 110.723c0 9.902-8.033 17.935-17.935 17.935s-17.937-8.033-17.937-17.935c0-9.908 8.033-17.935 17.937-17.935 9.9 0 17.935 8.027 17.935 17.935m-53.807 0c0 9.902-8.026 17.935-17.928 17.935-9.909 0-17.935-8.033-17.935-17.935A17.94 17.94 0 0 1 88.2 98.04a17.93 17.93 0 0 1 12.683-5.252c9.902 0 17.928 8.027 17.928 17.935"/><path fill="#010101" d="M106.109 108.478a5.24 5.24 0 0 1-3.226 4.834 5.24 5.24 0 0 1-4.002.002 5.25 5.25 0 0 1-2.832-2.829 5.23 5.23 0 0 1 1.13-5.7 5.231 5.231 0 0 1 8.93 3.693m53.805 0a5.233 5.233 0 0 1-5.23 5.328 5.2 5.2 0 0 1-2.024-.407 5.22 5.22 0 0 1-2.836-2.888 5.23 5.23 0 1 1 10.09-2.033"/><path fill="#B6CFEA" d="M46.337 119.69a3.52 3.52 0 0 1-2.71-1.026 3.52 3.52 0 0 1-1.026-2.709V86.067a3.53 3.53 0 0 1 1.023-2.713 3.53 3.53 0 0 1 2.712-1.023 3.525 3.525 0 0 1 3.736 3.736v29.889a3.538 3.538 0 0 1-3.737 3.736zm162.892 0a3.52 3.52 0 0 1-2.707-1.03 3.54 3.54 0 0 1-1.028-2.705V86.067a3.53 3.53 0 0 1 1.03-2.713 3.52 3.52 0 0 1 2.705-1.023 3.52 3.52 0 0 1 2.706 1.023 3.53 3.53 0 0 1 1.03 2.713v29.889a3.5 3.5 0 0 1-1.03 2.707 3.53 3.53 0 0 1-2.707 1.029z"/><path fill="#fff" d="M106.858 39.738a3.737 3.737 0 0 1-3.736 3.735 3.735 3.735 0 1 1 3.736-3.736M76.226 140.61a2.74 2.74 0 0 1-2.246-.747c-8.967-11.206-13.451-25.405-13.451-39.605a66.7 66.7 0 0 1 8.968-33.627 73.2 73.2 0 0 1 23.908-23.906 3.29 3.29 0 0 1 3.744.747 3.29 3.29 0 0 1-.75 3.735A60.3 60.3 0 0 0 65.76 99.51a58.86 58.86 0 0 0 12.704 36.619c.749.749.749 2.988-.75 3.735-.746.749-.746.747-1.488.747"/><mask id="mask6_420_52" width="225" height="225" x="16" y="16" maskUnits="userSpaceOnUse" style="mask-type:luminance"><path fill="#000" fill-opacity=".251" d="M16 16h225v225H16z"/></mask><g mask="url(#mask6_420_52)"><mask id="mask7_420_52" width="225" height="225" x="16" y="16" maskUnits="userSpaceOnUse" style="mask-type:luminance"><path fill="#fff" d="M16 16h225v225H16z"/></mask><g mask="url(#mask7_420_52)"><path fill="#E9654B" d="M162.153 175.727v-5.971c-10.459 5.973-21.672 11.953-35.115 11.953-14.949 0-24.664-6.722-34.374-11.953l.741 5.973s11.215 11.962 34.374 11.962c21.671-.749 34.374-11.964 34.374-11.964"/></g></g></g><defs><clipPath id="clip0_420_52"><path fill="#fff" d="M16 16h225v225H16z"/></clipPath></defs></svg>
